X:1
T:He Threw Out the Life-Line to Me
T:He Threw Out the Life-Line to Me
T:J. E. French
T:J. E. French, 1906
T:Public Domain Courtesy of the Cyber Hymnal™
T:Public Domain Courtesy of the Cyber Hymnal™
C:J. E. French
Z:Public Domain
Z:Courtesy of the Cyber Hymnal™
%%score ( 1 2 ) ( 3 4 )
L:1/8
Q:1/4=85
M:6/8
K:Ab
V:1 treble 
V:2 treble 
V:3 bass 
V:4 bass 
V:1
 ([CE]/[CA]/) | [Ec][Fd][Ec] [DB][CA][DB] | [Ec][CA][DF] [CA]2 ([EG]/[DF]/) | %3
w: 1.~I~was *|wrecked on a rock- y and|de- so- late shore, Sinking *|
w: 2.~The *|bil- lows were dash- ing, the|waves roll- ing high, No *|
w: 3.~When *|all was con- fu- sion midst|dark bil- lows’ roll, No *|
w: 4.~And *|now as I wan- der I|sing as I go, His *|
w: 5.~Your *|sins like the bil- lows a-|round you may rise, And *|
 [CE][CA][CA] [=DA]>[DB][Dc] | [EB]3- [EB]2 ([CE]/[CA]/) | [Ec][Fd][Ec] [DB][CA][DB] | %6
w: slow- ly be- neath the wild|sea; * When *|all of my strug- gles and|
w: help from the land could I|see, * When *|hope had all van- ished and|
w: light thro’ the gloom could I|see, * By *|trust- ing Him ful- ly He|
w: mer- cy is bound- less and|free, * And *|tell the glad sto- ry, that|
w: dan- gers your frail bark pur-|sue, * There’s *|One who will heed you and|
 [Ec][CA][DF] [CA]2 [EB] | [Ec][Ec]>[CA] [DB][DB]>[DG] | [CA]3- [CA]2 ||"^Refrain" [_GA] | %10
w: ef- forts were o’er, Christ|threw out the life- line to|me. *||
w: dan- ger was nigh, Christ|threw out the life- line to|me. *||
w: res- cued my soul, Christ|threw out the life- line to|me. *|He|
w: o- thers may know, Christ|threw out the life- line to|me. *||
w: hear your faint cries, He’ll|throw out the life- line to|you. *||
 [Fd][Fd]>[Fd] [Fd][FA]>[_FB] | [Ec]3- [Ec]2 [Ec] | [EB][EB]>[EB] [=DB][DB]>[Dc] | [EB]3- [EB]2 E | %14
w: ||||
w: ||||
w: threw out the life- line to|me, * He|threw out the life- line to|me, * From|
w: ||||
w: ||||
 E[=DF][_DG] [CA]2 A | A[GB][_Gc] !fermata![Fd]2 !fermata![Fd] | [Ec][Ec]>[CA] [DB][DB]>[DG] | %17
w: |||
w: |||
w: Cal- va- ry’s tree, Far|o- ver the sea, Christ|threw out the life- line to|
w: |||
w: |||
 [CA]3- [CA]2 |] %18
w: |
w: |
w: me. *|
w: |
w: |
V:2
 x | x6 | x6 | x6 | x6 | x6 | x6 | x6 | x5 || x | x6 | x6 | x6 | x5 E | E x3 A x | A x5 | x6 | %17
 x5 |] %18
V:3
 ([A,,A,]/[A,,A,]/) | [A,,A,][A,,A,][A,,A,] [E,G,][F,A,][E,G,] | %2
 [A,,A,][A,,A,][D,A,] [A,,A,]2 ([A,,A,]/[A,,A,]/) | [A,,A,][A,,A,][A,,A,] [B,,A,]>[B,,G,][B,,F,] | %4
 [E,G,]3- [E,G,]2 ([A,,A,]/[A,,A,]/) | [A,,A,][A,,A,][A,,A,] [E,G,][F,A,][E,G,] | %6
 [A,,A,][A,,A,][D,A,] [A,,A,]2 [E,G,] | A,A,>A, [E,G,][E,G,]>[E,B,] | [A,,A,]3- [A,,A,]2 || %9
 [C,A,] | [D,A,][D,A,]>[D,A,] [D,A,][D,A,]>[D,A,] | [A,,A,]2 [A,,A,] [A,,A,]2 [A,,A,] | %12
 [B,,G,][B,,G,]>[B,,G,] [B,,A,][B,,A,]>[B,,A,] | [E,G,]2 [E,G,] [E,G,]2 [E,G,] | %14
 [E,G,][E,A,][E,B,] [A,,A,]2 [A,C] | [A,C][A,D][A,E] [D,D]2 [D,A,] | %16
 [E,A,][E,A,]>[E,A,] [E,G,][E,G,]>[E,B,] | [A,,A,]3- [A,,A,]2 |] %18
V:4
 x | x6 | x6 | x6 | x6 | x6 | x6 | A,A,>A, x3 | x5 || x | x6 | x6 | x6 | x6 | x6 | x6 | x6 | x5 |] %18

